X:2034
T:Follow Me Down to Galway
O:england
D:Mike & Mary Rafferty, The Old Fireside Music (1998)
M:4/4
L:1/8
K:Am
A2 BG A2 Bd|e2 dg eAAD|G2 GD G2 AB|cABA GEDE|A2 BG A2 Bd|egdg eaae|
gedB c2 (3Bcd|egdB BA A2::abae abae|gaba gede|g2 gd g2 (Bcd|
gaba ge d2|abae abae|gaba gede|gedB c2 (3Bcd|egdB BA A2:|]
